X:121
T:Sport
M:6/8
L:1/8
C:Sean O'Riada
R:jig
K:D
AdF A3 | GBE GFG | AdF A3 | GBE B/c/de |
AdF A3 | GBE GFG | cdc A/2B/2AG |1 EAA D2 B :|2 EDD D2 d |:
c3 dcd | cec A2g | fed ged | c/d/ec A2 g |
f3 gfg | f/2g/2af d2 e | fdF A2F |1 GEA D2 d :|2 GEA DE/2F/2G |:
AGG AGE | AGE EDE | AGE cde | dcA AGE |
AGG AGE | AGE EDE | cdc A/2B/2AG | EAA DE/2F/2G :|
